X: 14690
T: Gan Ainm
R: jig
M: 6/8
K: Amixolydian
ed|:"A"c3 ecA|"D"d2f a2f|"A"ecA ABc|"B7"B3-"E7"Bed|
"A"c3 ecA|"D"d2f a2f|"A"ecA "E7"B2e|"A"A3-A:|
fg|"A"a2e A2e|"D"d2f a=gf|"A"ecA ABc|"B7"B3- "E7"B2e|
"A"a2e A2e|"D"d2f a=gf|"A"ecA "E7"B2e|"A"A3- A2e|
"A"a2e A2e|"D"d2f a=gf|"A"ecA ABc|"B7"B3- "E7"Bed|
"A"c3 ecA|"D"d2f a2f|"A"ecA "E7"B2e|"A"A3- A||

